!!!!SEGMENT: T366_Str-w8p1m1-16.krn
!!!COM: Stravinsky, Igor (Fyodorovich)
!!!OTL: First Piece
!!!AGN: Instrumental
!!!AGN-sub: Chamber
!!!CNT: Russian,French,American
!!!ODT: 1914 (rev. 1918)
!!!OPR: Three Pieces for String Quartet
!!!filename: T366_Str-w8p1m1-16.krn
**kern	**dynam	**kern	**dynam	**kern	**dynam	**kern	**dynam	**kern	**dynam
*grp:A	*	*grp:A	*	*grp:B	*	*grp:B	*	*grp:B	*
*part4	*	*part3	*	*part3	*	*part2	*	*part1	*
*staff5	*	*staff4	*	*staff3	*	*staff2	*	*staff1	*
*ICstr	*	*ICstr	*	*	*	*ICstr	*	*ICstr	*
*Icello	*	*Iviola	*	*	*	*Ivioln	*	*Ivioln	*
*I"Violoncello	*	*I"Viola	*	*	*	*I"Violin II	*	*I"Violin I	*
*I'vc	*	*I'vla	*	*	*	*I'vn	*	*I'vn	*
*clefF4	*	*clefC3	*	*clefC3	*	*clefG2	*	*clefG2	*
*k[]	*	*k[]	*	*k[]	*	*k[]	*	*k[]	*
*C:	*	*C:	*	*C:	*	*C:	*	*C:	*
!!LO:TX:tempo:a:t=[quarter]=126
*M3/4	*	*M3/4	*	*M3/4	*	*M3/4	*	*M3/4	*
=1	=1	=1	=1	=1	=1	=1	=1	=1	=1
!	!	!	!	!LO:TX:a:t=arco/sul ponticello (al fine)	!	!	!	!LO:TX:t=M.M. [quarter]=126	!
4%3r)j	.	4%3r	.	[2.C#X [2.d	p	4%3r)j	.	4%3r	.
=2	=2	=2	=2	=2	=2	=2	=2	=2	=2
*M2/4	*	*M2/4	*	*M2/4	*	*M2/4	*	*M2/4	*
2r	.	2r	.	2C#_ 2d_	.	2r	.	2r	.
=3	=3	=3	=3	=3	=3	=3	=3	=3	=3
!	!	!	!	!	!LO:HP:a	!	!	!	!
2r	.	2r	.	(2C#] 2d_	<	2r	.	2r	.
=4||	=4||	=4||	=4||	=4||	=4||	=4||	=4||	=4||	=4||
*M3/4	*	*M3/4	*	*M3/4	*	*M3/4	*	*M3/4	*
*	*	*	*	*^	*	*	*	*	*
!	!	!	!	!	!	!LO:DY:t=%s subito	!	!	!	!
!LO:TX:a:t=pizz.	!	!	!	!	!	!LO:DY:a	!LO:TX:a:t=pizz.	!	!LO:TX:a:t=Sur le sol	!
8E-XL	f	4r	.	2.d_	16D#X)	[ fp	4d	mf	(8gvL	mf
.	.	.	.	.	8.r	.	.	.	.	.
8CCJ 8D-X	.	.	.	.	.	.	.	.	8aJ)	.
!	!	!	!	!	!	!	!	!	!LO:TX:a:i:t=Glissez avec toute la longueurde l'archet jusqu'à la fin.	!
4D-	p	4r	.	.	4r	.	4r	.	4bu	.
!	!	!LO:TX:a:t=pizz. (sul Ré)	!LO:DY:t=sempre %s	!	!	!LO:DY:b:t=sempre %s	!	!	!	!
8E-L	f	4d	mf	.	4r	mf	4r	.	8ccvL	.
8D-J	.	.	.	.	.	.	.	.	8auJ	.
*	*	*	*	*v	*v	*	*	*	*	*
!!linebreak:original
=5	=5	=5	=5	=5	=5	=5	=5	=5	=5
*M2/4	*	*M2/4	*	*M2/4	*	*M2/4	*	*M2/4	*
8E-XL	f	4d	.	2d_	.	2r	.	(8bvL	.
8CCJ 8D-X	.	.	.	.	.	.	.	8ccJ)	.
4D-	p	4r	.	.	.	.	.	8buL	.
.	.	.	.	.	.	.	.	(16a'vL	.
.	.	.	.	.	.	.	.	16g'JJ	.
=6	=6	=6	=6	=6	=6	=6	=6	=6	=6
8E-XL	f	4d	.	2d_	.	2r	.	8a')	.
8CCJ 8D-X	.	.	.	.	.	.	.	4bu	.
4D-	p	4r	.	.	.	.	.	.	.
.	.	.	.	.	.	.	.	8gv	.
=7	=7	=7	=7	=7	=7	=7	=7	=7	=7
*M3/4	*	*M3/4	*	*M3/4	*	*M3/4	*	*M3/4	*
!LO:TX:b:i:t=sempre simile	!	!	!	!	!	!LO:TX:a:t=arco	!	!LO:TX:a:t=talon	!LO:HP:a
8E-XL	.	4d	.	2.d_	.	4r	.	(4a^u	>
8CCJ 8D-X	.	.	.	.	.	.	.	.	.
!	!	!	!	!	!	!LO:TX:a:t=sur le sol/du talon	!	!	!
!	!	!	!	!	!	!	!LO:DY:t=%s excessivement sec	!	!
4D-	.	4r	.	.	.	(8f#X`vL	ff	8g)	]
.	.	.	.	.	.	8e`v	.	8r	.
!	!	!	!	!	!	!	!	!LO:TX:a:t=talon	!LO:HP:a
8E-L	.	4d	.	.	.	8d#X`v	.	(4a^u	>
8D-J	.	.	.	.	.	8c#X`vJ)	.	.	.
=8	=8	=8	=8	=8	=8	=8	=8	=8	=8
*M2/4	*	*M2/4	*	*M2/4	*	*M2/4	*	*M2/4	*
8E-XL	.	4d	.	2d_	.	2r	.	8g)	]
8CCJ 8D-X	.	.	.	.	.	.	.	8r	.
4D-	.	4r	.	.	.	.	.	8avL	.
.	.	.	.	.	.	.	.	(16g'uL	.
.	.	.	.	.	.	.	.	16a'JJ)	.
!!pagebreak:original
=9	=9	=9	=9	=9	=9	=9	=9	=9	=9
8E-XL	.	4d	.	2d_	.	2r	.	(8b'vL	.
8CCJ 8D-X	.	.	.	.	.	.	.	8cc'J)	.
4D-	.	4r	.	.	.	.	.	(8buL	.
.	.	.	.	.	.	.	.	[8aJ	.
=10	=10	=10	=10	=10	=10	=10	=10	=10	=10
*M3/4	*	*M3/4	*	*M3/4	*	*M3/4	*	*M3/4	*
8E-XL	.	4d	.	2.d_	.	4%3r	.	8aL])	.
8CCJ 8D-X	.	.	.	.	.	.	.	8gvJ	.
!	!	!	!	!	!	!	!	!	!LO:HP:a
4D-	.	4r	.	.	.	.	.	(4a^u	>
8E-L	.	4d	.	.	.	.	.	8g)	]
8D-J	.	.	.	.	.	.	.	8r	.
=11	=11	=11	=11	=11	=11	=11	=11	=11	=11
*M2/4	*	*M2/4	*	*M2/4	*	*M2/4	*	*M2/4	*
8E-XL	.	4d	.	2d_	.	4r	.	(8ccuL	.
8CCJ 8D-X	.	.	.	.	.	.	.	8bJ)	.
!	!	!	!	!	!	!LO:TX:b:i:t=sempre simile	!	!	!
!	!	!	!	!	!	!	!	!	!
4D-	.	4r	.	.	.	(8f#XuL	.	8avL	.
.	.	.	.	.	.	8eu	.	(16g'uL	.
.	.	.	.	.	.	.	.	16aJJ)	.
=12	=12	=12	=12	=12	=12	=12	=12	=12	=12
8E-XL	.	4d	.	2d_	.	8d#Xu	.	(8b'vL	.
8CCJ 8D-X	.	.	.	.	.	8c#XuJ)	.	8cc'J)	.
4D-	.	4r	.	.	.	(8f#XvL	.	(8buL	.
.	.	.	.	.	.	8ev	.	[8aJ	.
!!linebreak:original
=13	=13	=13	=13	=13	=13	=13	=13	=13	=13
*M3/4	*	*M3/4	*	*M3/4	*	*M3/4	*	*M3/4	*
8E-XL	.	4d	.	2.d_	.	8d#Xv	.	8aL])	.
8CCJ 8D-X	.	.	.	.	.	8c#XvJ)	.	8gvJ	.
4D-	.	4r	.	.	.	4r	.	4a^u	.
8E-L	.	4d	.	.	.	4r	.	(8gvL	.
8D-J	.	.	.	.	.	.	.	8aJ)	.
=14	=14	=14	=14	=14	=14	=14	=14	=14	=14
*M2/4	*	*M2/4	*	*M2/4	*	*M2/4	*	*M2/4	*
8E-XL	.	4d	.	2d_	.	2r	.	4b	.
8CCJ 8D-X	.	.	.	.	.	.	.	.	.
4D-	.	4r	.	.	.	.	.	8ccL	.
.	.	.	.	.	.	.	.	8aJ	.
=15	=15	=15	=15	=15	=15	=15	=15	=15	=15
8E-XL	.	4d	.	2d_	.	2r	.	(8bL	.
8CCJ 8D-X	.	.	.	.	.	.	.	8ccJ)	.
4D-	.	4r	.	.	.	.	.	8bL	.
.	.	.	.	.	.	.	.	(16a'L	.
.	.	.	.	.	.	.	.	16g'JJ	.
=16	=16	=16	=16	=16	=16	=16	=16	=16	=16
*M3/4	*	*M3/4	*	*M3/4	*	*M3/4	*	*M3/4	*
8E-XL	.	4d	.	2.d_	.	4r	.	8a')	.
8CCJ 8D-X	.	.	.	.	.	.	.	4b	.
4D-	.	4r	.	.	.	4r	.	.	.
.	.	.	.	.	.	.	.	8g	.
!	!	!	!	!	!	!	!	!LO:TX:a:t=talon	!
8E-L	.	4d	.	.	.	(8f#XvLi	.	(4a^i	> ]
8D-J	.	.	.	.	.	8evJ	.	.	.
=	=	=	=	=	=	=	=	=	=
*-	*-	*-	*-	*-	*-	*-	*-	*-	*-
!!!system-decoration: [(s1,s2[({(s3,s4)})]s5)]
!!!RDF**kern: i = marked note, color="hotpink", text="extra("
!!!RDF**kern: j = marked note, color="magenta", text="extra)
!!!EED: Claudio de Freitas
!!!EEV: 2022/02/11
!!!EED2: Jason Lee
!!!Suter_Work_ID: Str-8
!!!Suter_Example_Number: 366
!!!Suter_Example_ID: Str-8/1/1-16
!!!Premiere_Location: Paris,France
!!!Other_Tsigs: 2/4,3/4,2/4,3/4,2/4,3/4,2/4,3/4,2/4,/3/4
!!!Full_Unit_Duration: 0:54
!!!First_Publication_Year: 1922
!!!First_Public_Performance_Year: 1915
!!!Example_Total_Measures: 16
!!!Example_Timestamp_Duration: 20
!!!Example_Start_Tsig_Type: changing
!!!Example_Start_Tsig_Mean_Beat_Rate: 126
!!!Example_Start_Tsig_Beat_Rate: 126
!!!Example_Start_Tsig_Beat: quarter
!!!Example_Start_Tsig: 3/4
!!!Example_Start_Timestamp: 0:00
!!!Example_Start_Tempo_Expression: none
!!!Example_Start_Notated_Beat_Rate: 126
!!!Example_Start_Notated_Beat: quarter
!!!Example_Start_Measure: 1
!!!Example_Metadata_Validated: Y
!!!Example_End_Timestamp: 0:20
!!!Example_End_Measure: 16
!!!Example_Dataset: T
!!!Editorial_Comments:
!!!Death_Place: New York,United States
!!!Death_Date: 6-Apr-1971
!!!Changing_Tsig: yes
!!!Birth_Place: Lomonosov (Oranienbaum),Russia
!!!Birth_Date: 17-Jun-1882
!!!Audio_Example_Quarter_Note_Tempo:
!!!Audio_Example_Duration:
!!!EEV2: 2022/03/15
